icons/barbajs-filled.svg

<svg width="256" height="256" viewBox="0 0 256 256" fill="none" xmlns="http://www.w3.org/2000/svg">
<rect width="256" height="256" rx="60" fill="#2E5BDC"/>
<path d="M132.187 105.134V36H74V219.901H124.299C126.652 220.18 129.004 220.312 131.504 220.312C163.233 220.312 189 194.46 189 162.653C188.997 147.52 183.033 132.997 172.4 122.23C161.766 111.463 147.319 105.318 132.187 105.126V105.134ZM125.262 105.553C116.004 106.559 107.13 109.804 99.4068 115.008C91.6835 120.211 85.343 127.217 80.9328 135.419V42.9095H125.262V105.553ZM80.9328 190.174C86.139 199.72 93.9102 207.621 103.369 212.983H80.9328V190.174ZM131.496 213.403C103.656 213.403 80.9328 190.726 80.9328 162.793C80.9328 134.728 103.656 112.043 131.496 112.043C159.351 112.043 182.075 134.72 182.075 162.793C182.215 190.726 159.483 213.403 131.504 213.403H131.496Z" fill="white"/>
</svg>

<svg xmlns="http://www.w3.org/2000/svg" width="256" height="256" fill="none"><rect width="256" height="256" fill="#2E5BDC" rx="60"/><path fill="#fff" d="M132.187 105.134V36H74v183.901h50.299c2.353.279 4.705.411 7.205.411 31.729 0 57.496-25.852 57.496-57.659a57.545 57.545 0 0 0-56.813-57.527zm-6.925.419a57.37 57.37 0 0 0-44.33 29.866v-92.51h44.33zm-44.33 84.621a58.3 58.3 0 0 0 22.437 22.809H80.933zm50.564 23.229c-27.84 0-50.563-22.677-50.563-50.61 0-28.065 22.723-50.75 50.563-50.75 27.855 0 50.579 22.677 50.579 50.75.14 27.933-22.592 50.61-50.571 50.61z"/></svg>
